X:912
T:Blodau'r Drain
% Nottingham Music Database
T:Tune
P:AAB
S:TDA II
M:3/4
L:1/4
K:Am
P:A
E|"Am"A2B|"Am/c"cBA|"Dm"ed/2c/2 B/2A/2|"E7"B2E|\
"Am"AA/2c/2 "Dm/a"B/2d/2|"Am"cBA|"E7"^GG/2B/2 "Am/e"A/2c/2|"E7"B2:|
P:B
B|"Am"c2c|"G/b"d2d|"C"ee"F/c"f|"C"e2"G/b"d|\
"Am"c/2B/2 c/2d/2c|"G7/b"d/2c/2 d/2e/2 d|"C"e/2f/2 e/2f/2 e/2f/2|"G7"g3/2f/2 e/2d/2|
"C"c/2B/2 c/2d/2 e/2c/2|"G"d/2c/2 d/2e/2 f/2d/2|"Am"eea|"E7"^gg/2a/2 b/2g/2|\
"Am"aec |"Dm"fed|"E7"cd/2c/2 B/2c/2|"Am"A2|]
T:Harmony
P:A
A|:"Am"c2 d|"Am/c"e d c|"Dm"f e/d/ e/a/|"E7"^g>e ^f/g/|\
"Am"a/g/ f/e/ "Dm/a"d/f/|"Am"c2 d|"E7"e/e/ e "Am/e"^d|1 "E7"e2 d:|2 "E7"e>e ^f/^g/|]
P:B
|:"Am"a z a|"G/b"g z g|"C"e/e/ e "F/c"d|"C"c2 "G/b"e|\
"Am"a>g f/e/|"G7/b"g>f e/d/|"C"e>d c/B/|"G7"G2 A/B/|
"C"c/B/ A/B/ c/A/|"G"d/c/ B/c/ d/B/|"Am"e/d/ c/B/ c/d/|"E7"e ^f ^g|\
"Am"a z c|"Dm"d c B|"E7"A ^G/A/ B/G/|"Am"A2|]%%newpage
%%textfont * 20
%%text W3 (1.0) p1
%%textfont * 12



